!!!!SEGMENT: pl-wnifc--13846--129_anonim--piesni-polskie-i-ruskie-ludu-galicyjskiego-129-plyne-czowen-wody-powen.krn
!!!kernsource:
!!!cenid: 18xx:3351
!!!COM: Anonim
!!!COM-rismID:
!!!CDT:
!!!CNT:
!!!GTL: Pieśni polskie i ruskie ludu galicyjskiego
!!!OTL: 129. Płyne czowen wody powen
!!!PDT: 1833
!!!AGN:
!!!SMS-siglum: PL-Wnifc
!!!SMS-shelfmark: 13846
!!!SMS-shelfwork: 129 G
!!!SMS-variant:
!!!SMS-altvar:
!!!NIFC-rismSourceID: 1001039636
!!!NIFC-islandoraID:
!!!URL-pdf-islandora:
!!!URL-scan:
!!!ONB-nifc:
!!!OMD: Allegretto non troppo
!!!AIN: 1 piano 1 vox
!!!key: d
**kern	**kern	**kern	**text
*part2	*part2	*part1	*part1
*staff3	*staff2	*staff1	*staff1
*I"Fortepian	*I"Fortepian	*I"Głos	*
*Ipiano	*Ipiano	*Ivox	*
*ICklav	*ICklav	*ICvox	*
*IGacmp	*IGacmp	*IGsolo	*
*clefF4	*clefG2	*clefG2	*
*k[b-]	*k[b-]	*k[b-]	*
*d:	*d:	*d:	*
*M2/4	*M2/4	*M2/4	*
*>[A,B,B]	*>[A,B,B]	*>[A,B,B]	*
=1	=1	=1	=1
*>A	*>A	*>A	*
!	!	!LO:TX:a:t=E.218.	!
8C#X\L 8E\ 8A\	8a|>\L 8ee\	8ee\	Pły-
8AA\	(16a\L 16ee\	(16ee\LL	-ne
.	16a\JJ) 16gg\	16gg\JJ)	.
8D\ 8F\ 8A\	8a\L 8ff\	8ff\	czo-
8AA\J	8a\J 8ff\	8ff\	-wen
=2	=2	=2	=2
8C#X\L 8E\ 8A\	8a\L 8ee\	8ee\	wo-
8AA\	(16a\L 16ee\	(16ee\LL	-dy
.	16a\JJ) 16gg\	16gg\JJ)	.
8D\ 8F\ 8A\	8a\L 8ff\	8ff\	po-
8AA\J	8a\J 8ff\	8ff\	-wen,
!!LO:LB:g=original
=3	=3	=3	=3
8C#X\L 8E\ 8A\	8a|>\L 8ee\	8ee\	taj
8AA\	(16a\L 16ee\	(16ee\LL	sie
.	16a\JJ) 16gg\	16gg\JJ)	.
8D\ 8F\ 8A\	4a\ 4ff\	4ff\	wy-
8AA\J	.	.	.
=4	=4	=4	=4
8C#X\L 8E\ 8A\	(16a\LL 16ee\	(16ee\LL	-chi-
.	16a\JJ) 16dd\	16dd\JJ)	.
8AA\J 8E\ 8G\ 8A\	8a\ 8cc#X\	8cc#X\	-lu-
4D\ 4F\ 4A\	4a\ 4dd\	4dd\	-je;
!!LO:LB:g=original
=5!|:	=5!|:	=5!|:	=5!|:
*>B	*>B	*>B	*
8D\L 8F\	8a|>\L	8a/	se-
8AA\	8a|>\^<	8a/	-dyt
8F\ 8A\	8dd|>\	8dd\	chlo-
8AA\J	8dd|>\^<J	8dd\	-peć
=6	=6	=6	=6
8E\L 8G\ 8A\	8cc#X|>\L	8cc#X\	ko-
8AA\	8cc#|>\^<	8cc#\	-ło
8D\ 8F\ 8A\	8dd|>\	8dd\	pan-
8AA\J	8dd|>\^<J	8dd\	-ny,
!!LO:LB:g=original
=7	=7	=7	=7
8C#X\L 8E\ 8A\	8a\L 8ee\	8ee\	taj
8AA\	(16a\L 16ee\	(16ee\LL	sie
.	16gg\JJ)	16gg\JJ)	.
8D\ 8F\ 8A\	4a\ 4ff\	4ff\	wy-
8AA\J	.	.	.
=8	=8	=8	=8
8C#X\L 8E\ 8A\	(16a\LL 16ee\	(16ee\LL	-py-
.	16dd\)	16dd\JJ)	.
8AA\J 8E\ 8G\ 8A\	(16a/ 16cc#X/	8cc#X\	-tu-
.	16ee\JJ)	.	.
4D\ 4F\ 4A\	4a\ 4dd\	4dd\	-je:
!!LO:PB:g=original
=:|!	=:|!	=:|!	=:|!
*-	*-	*-	*-
!!!system-decoration: s1,{(s2,s3)}
!!!RDF**kern: < = below
!!!RDF**kern: > = above
!!!ENC: Marta Chmielewska
!!!END: 2021-11-11
